.local/share/icons/Gruvbox-Plus-Dark/actions/16/mail-send-receive.svg

<svg xmlns="http://www.w3.org/2000/svg" width="16" height="16" viewBox="0 0 16 16">
 <defs>
  <style id="current-color-scheme" type="text/css">
   .ColorScheme-Text { color:#ebdbb2; } .ColorScheme-Highlight { color:#458588; }
  </style>
 </defs>
 <path style="fill:currentColor" class="ColorScheme-Text" d="M 5 0.99804688 L 1 4.9980469 L 3 4.9980469 L 3 9.9980469 L 7 9.9980469 L 7 4.9980469 L 9 4.9980469 L 5 0.99804688 z M 9 5.9980469 L 9 10.998047 L 7 10.998047 L 11 14.998047 L 15 10.998047 L 13 10.998047 L 13 5.9980469 L 9 5.9980469 z"/>
</svg>

<svg width="16" height="16" version="1.1" xmlns="http://www.w3.org/2000/svg">
  <defs>
    <style id="current-color-scheme" type="text/css">.ColorScheme-Text { color:#ebdbb2; } .ColorScheme-Highlight { color:#458588; }</style>
  </defs>
  <path class="ColorScheme-Text" d="m5 0.998-4 4h2v5h4v-5h2l-4-4zm4 5v5h-2l4 4 4-4h-2v-5h-4z" fill="currentColor"/>
</svg>
